Numix-Light/16/status/indicator-keyboard-Be.svg

<?xml version="1.0" encoding="UTF-8" standalone="no"?>
<svg
   xmlns:dc="http://purl.org/dc/elements/1.1/"
   xmlns:cc="http://creativecommons.org/ns#"
   xmlns:rdf="http://www.w3.org/1999/02/22-rdf-syntax-ns#"
   xmlns:svg="http://www.w3.org/2000/svg"
   xmlns="http://www.w3.org/2000/svg"
   xmlns:sodipodi="http://sodipodi.sourceforge.net/DTD/sodipodi-0.dtd"
   xmlns:inkscape="http://www.inkscape.org/namespaces/inkscape"
   viewBox="0 0 16 16"
   id="svg2"
   version="1.1"
   inkscape:version="0.91 r13725"
   sodipodi:docname="indicator-keyboard-Be.svg">
  <metadata
     id="metadata13">
    <rdf:RDF>
      <cc:Work
         rdf:about="">
        <dc:format>image/svg+xml</dc:format>
        <dc:type
           rdf:resource="http://purl.org/dc/dcmitype/StillImage" />
      </cc:Work>
    </rdf:RDF>
  </metadata>
  <defs
     id="defs11" />
  <sodipodi:namedview
     pagecolor="#ffffff"
     bordercolor="#666666"
     borderopacity="1"
     objecttolerance="10"
     gridtolerance="10"
     guidetolerance="10"
     inkscape:pageopacity="0"
     inkscape:pageshadow="2"
     inkscape:window-width="640"
     inkscape:window-height="480"
     id="namedview9"
     showgrid="false"
     inkscape:zoom="14.75"
     inkscape:cx="8"
     inkscape:cy="8"
     inkscape:window-x="65"
     inkscape:window-y="24"
     inkscape:window-maximized="0"
     inkscape:current-layer="svg2" />
  <path
     style="fill:#353535;fill-opacity:1"
     d="M 1.5996094 0 C 0.71320937 2.9605947e-16 0 0.71320937 0 1.5996094 L 0 14.400391 C 2.9605947e-16 15.286791 0.71320937 16 1.5996094 16 L 14.400391 16 C 15.286791 16 16 15.286791 16 14.400391 L 16 1.5996094 C 16 0.71320937 15.286791 0 14.400391 0 L 1.5996094 0 z M 4.921875 4.8046875 C 5.257875 4.8046875 5.5769531 4.8327188 5.8769531 4.8867188 C 6.1829531 4.9407187 6.4497344 5.03025 6.6777344 5.15625 C 6.9057344 5.28225 7.0847969 5.4501562 7.2167969 5.6601562 C 7.3547969 5.8641563 7.4238281 6.1197812 7.4238281 6.4257812 C 7.4238281 6.7617812 7.3380625 7.0490625 7.1640625 7.2890625 C 6.9960625 7.5230625 6.7684688 7.6853906 6.4804688 7.7753906 C 6.6604687 7.8173906 6.8246094 7.8770781 6.9746094 7.9550781 C 7.1246094 8.0330781 7.2570938 8.1357188 7.3710938 8.2617188 C 7.4850938 8.3817188 7.5708594 8.5309375 7.6308594 8.7109375 C 7.6968594 8.8849375 7.7304688 9.0957969 7.7304688 9.3417969 C 7.7304688 9.9297971 7.4972969 10.379406 7.0292969 10.691406 C 6.5612969 10.997406 5.837375 11.150391 4.859375 11.150391 C 4.757375 11.150391 4.638 11.144813 4.5 11.132812 C 4.368 11.126812 4.2299375 11.113703 4.0859375 11.095703 C 3.9479375 11.083703 3.8154531 11.068781 3.6894531 11.050781 C 3.5634531 11.026781 3.4552344 11.002516 3.3652344 10.978516 L 3.3652344 4.9765625 C 3.4732344 4.9465625 3.5945625 4.9222969 3.7265625 4.9042969 C 3.8585625 4.8802969 3.9928594 4.8616094 4.1308594 4.8496094 C 4.2748594 4.8316094 4.4129219 4.8204531 4.5449219 4.8144531 C 4.6829219 4.8084531 4.807875 4.8046875 4.921875 4.8046875 z M 4.921875 5.3261719 C 4.699875 5.3261719 4.5114688 5.3337031 4.3554688 5.3457031 C 4.2054688 5.3577031 4.0805156 5.372625 3.9785156 5.390625 L 3.9785156 7.5859375 L 5.1660156 7.5859375 C 5.3880156 7.5859375 5.5969219 7.5710156 5.7949219 7.5410156 C 5.9929219 7.5050156 6.1645937 7.4453281 6.3085938 7.3613281 C 6.4585938 7.2713281 6.5761562 7.1537656 6.6601562 7.0097656 C 6.7441562 6.8597656 6.7851562 6.6713594 6.7851562 6.4433594 C 6.7851562 6.2393594 6.7403906 6.0676875 6.6503906 5.9296875 C 6.5603906 5.7856875 6.4316719 5.668125 6.2636719 5.578125 C 6.1016719 5.488125 5.9057344 5.426625 5.6777344 5.390625 C 5.4497344 5.348625 5.197875 5.3261719 4.921875 5.3261719 z M 10.761719 6.3359375 C 11.331719 6.3359375 11.785094 6.5205781 12.121094 6.8925781 C 12.463094 7.2645781 12.634766 7.8373281 12.634766 8.6113281 C 12.634766 8.6593281 12.631 8.7078594 12.625 8.7558594 C 12.625 8.8038594 12.623188 8.848625 12.617188 8.890625 L 9.3496094 8.890625 C 9.3676094 9.460625 9.5074844 9.8990779 9.7714844 10.205078 C 10.035484 10.511078 10.457203 10.664063 11.033203 10.664062 C 11.351203 10.664062 11.603062 10.634219 11.789062 10.574219 C 11.975062 10.514219 12.109359 10.463875 12.193359 10.421875 L 12.300781 10.925781 C 12.216781 10.973781 12.058219 11.029703 11.824219 11.095703 C 11.596219 11.161703 11.325672 11.195313 11.013672 11.195312 C 10.605672 11.195312 10.258703 11.135625 9.9707031 11.015625 C 9.6827031 10.895625 9.4457656 10.727719 9.2597656 10.511719 C 9.0737656 10.295719 8.9375156 10.040094 8.8535156 9.7460938 C 8.7695156 9.4460937 8.7285156 9.119625 8.7285156 8.765625 C 8.7285156 8.357625 8.7844375 8.003125 8.8984375 7.703125 C 9.0184375 7.397125 9.1714219 7.1415 9.3574219 6.9375 C 9.5494219 6.7335 9.7658594 6.5842813 10.005859 6.4882812 C 10.251859 6.3862812 10.503719 6.3359375 10.761719 6.3359375 z M 10.771484 6.8574219 C 10.561484 6.8574219 10.373078 6.8984219 10.205078 6.9824219 C 10.043078 7.0664219 9.8974844 7.1802188 9.7714844 7.3242188 C 9.6514844 7.4622187 9.556375 7.6245469 9.484375 7.8105469 C 9.418375 7.9965469 9.3791875 8.1924844 9.3671875 8.3964844 L 12.03125 8.3964844 C 12.01925 7.9104844 11.905453 7.5317188 11.689453 7.2617188 C 11.473453 6.9917187 11.167484 6.8574219 10.771484 6.8574219 z M 3.9785156 8.1074219 L 3.9785156 10.564453 C 4.0685156 10.576453 4.2028125 10.591375 4.3828125 10.609375 C 4.5628125 10.621375 4.7456406 10.628906 4.9316406 10.628906 C 5.2076406 10.628906 5.4744219 10.610219 5.7324219 10.574219 C 5.9964219 10.538219 6.2277812 10.472953 6.4257812 10.376953 C 6.6237812 10.280953 6.7823437 10.148469 6.9023438 9.9804688 C 7.0223438 9.8124687 7.0820313 9.5960312 7.0820312 9.3320312 C 7.0820312 9.0920313 7.0410312 8.8942813 6.9570312 8.7382812 C 6.8730313 8.5762813 6.7517031 8.449375 6.5957031 8.359375 C 6.4397031 8.263375 6.2494844 8.1981094 6.0214844 8.1621094 C 5.7994844 8.1261094 5.5494375 8.1074219 5.2734375 8.1074219 L 3.9785156 8.1074219 z "
     id="path4" />
</svg>

<svg xmlns="http://www.w3.org/2000/svg" viewBox="0 0 16 16">
 <path d="m 1.6 0 c -0.886 0 -1.6 0.713 -1.6 1.6 l 0 12.801 c 0 0.886 0.713 1.6 1.6 1.6 l 12.801 0 c 0.886 0 1.6 -0.713 1.6 -1.6 l 0 -12.801 c 0 -0.886 -0.713 -1.6 -1.6 -1.6 l -12.801 0 z m 3.322 4.805 c 0.336 0 0.655 0.028 0.955 0.082 c 0.306 0.054 0.573 0.144 0.801 0.27 c 0.228 0.126 0.407 0.294 0.539 0.504 c 0.138 0.204 0.207 0.46 0.207 0.766 c 0 0.336 -0.086 0.623 -0.26 0.863 c -0.168 0.234 -0.396 0.396 -0.684 0.486 c 0.18 0.042 0.344 0.102 0.494 0.18 c 0.15 0.078 0.282 0.181 0.396 0.307 c 0.114 0.12 0.2 0.269 0.26 0.449 c 0.066 0.174 0.1 0.385 0.1 0.631 c 0 0.588 -0.233 1.038 -0.701 1.35 c -0.468 0.306 -1.192 0.459 -2.17 0.459 c -0.102 0 -0.221 -0.006 -0.359 -0.018 c -0.132 -0.006 -0.27 -0.019 -0.414 -0.037 c -0.138 -0.012 -0.27 -0.027 -0.396 -0.045 c -0.126 -0.024 -0.234 -0.048 -0.324 -0.072 l 0 -6 c 0.108 -0.03 0.229 -0.054 0.361 -0.072 c 0.132 -0.024 0.266 -0.043 0.404 -0.055 c 0.144 -0.018 0.282 -0.029 0.414 -0.035 c 0.138 -0.006 0.263 -0.01 0.377 -0.01 z m 0 0.521 c -0.222 0 -0.41 0.008 -0.566 0.02 c -0.15 0.012 -0.275 0.027 -0.377 0.045 l 0 2.195 l 1.187 0 c 0.222 0 0.431 -0.015 0.629 -0.045 c 0.198 -0.036 0.37 -0.096 0.514 -0.18 c 0.15 -0.09 0.268 -0.208 0.352 -0.352 c 0.084 -0.15 0.125 -0.338 0.125 -0.566 c 0 -0.204 -0.045 -0.376 -0.135 -0.514 c -0.09 -0.144 -0.219 -0.262 -0.387 -0.352 c -0.162 -0.09 -0.358 -0.152 -0.586 -0.188 c -0.228 -0.042 -0.48 -0.064 -0.756 -0.064 z m 5.84 1.01 c 0.57 0 1.023 0.185 1.359 0.557 c 0.342 0.372 0.514 0.945 0.514 1.719 c 0 0.048 -0.004 0.097 -0.01 0.145 c 0 0.048 -0.002 0.093 -0.008 0.135 l -3.268 0 c 0.018 0.57 0.158 1.01 0.422 1.314 c 0.264 0.306 0.686 0.459 1.262 0.459 c 0.318 0 0.57 -0.03 0.756 -0.09 c 0.186 -0.06 0.32 -0.11 0.404 -0.152 l 0.107 0.504 c -0.084 0.048 -0.243 0.104 -0.477 0.17 c -0.228 0.066 -0.499 0.1 -0.811 0.1 c -0.408 0 -0.755 -0.06 -1.043 -0.18 c -0.288 -0.12 -0.525 -0.288 -0.711 -0.504 c -0.186 -0.216 -0.322 -0.472 -0.406 -0.766 c -0.084 -0.3 -0.125 -0.626 -0.125 -0.98 c 0 -0.408 0.056 -0.762 0.17 -1.063 c 0.12 -0.306 0.273 -0.562 0.459 -0.766 c 0.192 -0.204 0.408 -0.353 0.648 -0.449 c 0.246 -0.102 0.498 -0.152 0.756 -0.152 z m 0.01 0.521 c -0.21 0 -0.398 0.041 -0.566 0.125 c -0.162 0.084 -0.308 0.198 -0.434 0.342 c -0.12 0.138 -0.215 0.3 -0.287 0.486 c -0.066 0.186 -0.105 0.382 -0.117 0.586 l 2.664 0 c -0.012 -0.486 -0.126 -0.865 -0.342 -1.135 c -0.216 -0.27 -0.522 -0.404 -0.918 -0.404 z m -6.793 1.25 l 0 2.457 c 0.09 0.012 0.224 0.027 0.404 0.045 c 0.18 0.012 0.363 0.02 0.549 0.02 c 0.276 0 0.543 -0.019 0.801 -0.055 c 0.264 -0.036 0.495 -0.101 0.693 -0.197 c 0.198 -0.096 0.357 -0.228 0.477 -0.396 c 0.12 -0.168 0.18 -0.384 0.18 -0.648 c 0 -0.24 -0.041 -0.438 -0.125 -0.594 c -0.084 -0.162 -0.205 -0.289 -0.361 -0.379 c -0.156 -0.096 -0.346 -0.161 -0.574 -0.197 c -0.222 -0.036 -0.472 -0.055 -0.748 -0.055 l -1.295 0 z" style="fill:#353535;fill-opacity:1"/>
</svg>
